X: 1
T: Caught In The Middle
M: 4/4
L: 1/8
R: reel
K: Dmaj
ge|:fa~a2 gecA | defd AGFA | G2ed cABc | defg e2de |!
fa~a2 gecA | defd AGFA | G2ed cABc |1 dBAF D2ge :|2 dBAF D2GE ||!
|:FA~A2 GBdB | ceAc dBAG |FA~A2 GBdf | gefd ecAG |!
FA~A2 GBdB | ceAc defg | af~f2 gecA |1 dBAF D2GE :|2 dBAF D2 ||!
